X:596
M:C|
L:1/8
K:B_
g|fBdb dfbg|fBdB c/c/c ~cg|fBdB dfbg|fdcd B/B/B ~Bg|fBdB dfbg|
fBdB c/c/c cf|bgeg fdBd|cBcd B/B/B ~B||

